brandFactory_export/3.Masa/Smartwifi smart wifi _2Masa.svg

<?xml version="1.0" encoding="UTF-8"?>
<svg width="24px" height="24px" viewBox="0 0 24 24" version="1.1" xmlns="http://www.w3.org/2000/svg" xmlns:xlink="http://www.w3.org/1999/xlink">
    <title>3.Masa/Smartwifi smart wifi _2Masa</title>
    <g id="Symbols" stroke="none" stroke-width="1" fill="none" fill-rule="evenodd">
        <g id="3.Masa/Smartwifi-smart-wifi-_2Masa" fill="#5CB615" fill-rule="nonzero">
            <path d="M5.43193277,19.5798319 C4.93445378,19.5798319 4.63529412,19.8823529 4.63529412,20.3831933 C4.63529412,20.6285714 4.70252101,20.8235294 4.84033613,20.9680672 C4.98151261,21.112605 5.18319328,21.1865546 5.42857143,21.1865546 C5.67394958,21.1865546 5.8789916,21.1092437 6.01680672,20.9680672 C6.15462185,20.8268908 6.22521008,20.6285714 6.22521008,20.3831933 C6.22857143,19.8789916 5.93277311,19.5798319 5.43193277,19.5798319 M9.41176471,20.5546218 L9.41176471,11.112605 C9.41176471,10.5210084 9.28739496,10.107563 9.03529412,9.85210084 C8.78319328,9.59663866 8.37310924,9.47226891 7.78151261,9.47226891 L3.08571429,9.47226891 C2.50420168,9.47226891 2.09411765,9.6 1.83529412,9.86218487 C1.57983193,10.1210084 1.45546218,10.5310924 1.45546218,11.1092437 L1.45546218,20.5512605 C1.45546218,21.1495798 1.57983193,21.5630252 1.83193277,21.8151261 C2.08403361,22.0672269 2.49411765,22.1882353 3.08571429,22.1882353 L7.78151261,22.1882353 C8.37310924,22.1882353 8.78319328,22.0672269 9.03193277,21.8151261 C9.28739496,21.5663866 9.41176471,21.1529412 9.41176471,20.5546218 L9.41176471,20.5546218 Z M23.1462185,8.06722689 C23.6168067,8.54789916 23.7512605,9.2302521 23.4957983,9.84201681 C23.2168067,10.4907563 22.5714286,10.9109244 21.8621849,10.9008403 L21.5630252,10.9008403 L21.5630252,17.3008403 C21.5630252,18.2285714 20.7764706,18.9848739 19.8084034,18.9848739 L10.8672269,18.9848739 L10.8672269,20.5546218 C10.8672269,21.5630252 10.605042,22.3159664 10.0571429,22.8571429 C9.52268908,23.394958 8.77647059,23.6537815 7.78151261,23.6537815 L3.08571429,23.6537815 C2.0907563,23.6537815 1.34453782,23.3915966 0.806722689,22.8571429 C0.265546218,22.3159664 0,21.5630252 0,20.5546218 L0,11.112605 C0,10.1277311 0.262184874,9.38151261 0.8,8.83361345 C1.34453782,8.2789916 2.0907563,8.01008403 3.08235294,8.01008403 L5.94957983,8.01008403 L13.2403361,0.541176471 C13.902521,-0.134453782 15.1462185,-0.137815126 15.805042,0.541176471 L23.1462185,8.06722689 Z M14.7630252,12.1277311 L14.6890756,12.1277311 C14.107563,12.1310924 13.5193277,12.5109244 13.5193277,13.3445378 C13.5193277,14.1781513 14.1109244,14.5579832 14.7764706,14.5647059 C15.3579832,14.5512605 15.9428571,14.1714286 15.9428571,13.3478992 C15.9428571,12.5243697 15.3546218,12.1445378 14.7630252,12.1277311 L14.7630252,12.1277311 Z M14.6857143,6.32268908 C11.7915966,6.35294118 10.2386555,8.04033613 10.1747899,8.11092437 C9.99327731,8.3092437 10.010084,8.61848739 10.2084034,8.8 C10.4033613,8.98151261 10.7092437,8.96806723 10.8907563,8.77310924 L10.8941176,8.7697479 C10.9478992,8.7092437 12.2420168,7.32773109 14.7226891,7.30084034 C14.7394958,7.30084034 17.0689076,7.19327731 18.5647059,8.87394958 C18.7428571,9.07563025 19.0487395,9.09243697 19.2470588,8.91428571 L19.2504202,8.91092437 C19.4487395,8.72941176 19.4689076,8.42352941 19.287395,8.22184874 C17.4722689,6.17815126 14.7764706,6.31596639 14.6857143,6.32268908 L14.6857143,6.32268908 Z M14.692437,8.25546218 C12.5042017,8.2789916 11.2235294,9.68403361 11.1697479,9.74117647 C10.9915966,9.94285714 11.0084034,10.2521008 11.2134454,10.4302521 C11.3008403,10.507563 11.4151261,10.5512605 11.5327731,10.5512605 C11.6705882,10.5512605 11.8016807,10.4941176 11.892437,10.3932773 C11.902521,10.3831933 12.9546218,9.24705882 14.7193277,9.2302521 C14.7428571,9.21680672 16.497479,9.16638655 17.5697479,10.3731092 C17.7478992,10.5714286 18.0571429,10.5915966 18.2554622,10.410084 C18.4537815,10.2285714 18.4739496,9.92268908 18.292437,9.7210084 C16.9176471,8.17478992 14.7764706,8.25546218 14.692437,8.25546218 L14.692437,8.25546218 Z M14.7058824,10.2319328 C13.2436975,10.2487395 12.3831933,11.189916 12.3462185,11.2302521 C12.1647059,11.4285714 12.1815126,11.7378151 12.3798319,11.9193277 C12.5781513,12.1008403 12.887395,12.0840336 13.0689076,11.8857143 C13.5159664,11.4521008 14.1109244,11.210084 14.7327731,11.2067227 C14.7428571,11.1932773 15.7815126,11.1798319 16.3966387,11.8689076 C16.5747899,12.0705882 16.8840336,12.0840336 17.0823529,11.9092437 C17.2806723,11.7277311 17.3008403,11.4218487 17.1226891,11.2201681 C16.1882353,10.1781513 14.7428571,10.2285714 14.7058824,10.2319328 L14.7058824,10.2319328 Z" id="Smartwifi-smart-wifi-_2Masa"></path>
        </g>
    </g>
</svg>

<svg width="24" height="24" viewBox="0 0 24 24" xmlns="http://www.w3.org/2000/svg"><path d="M5.432 19.58c-.498 0-.797.302-.797.803 0 .246.068.44.205.585.142.145.343.219.589.219.245 0 .45-.078.588-.219.138-.141.208-.34.208-.585.004-.504-.292-.803-.793-.803m3.98.975v-9.442c0-.592-.125-1.005-.377-1.26-.252-.256-.662-.38-1.253-.38H3.086c-.582 0-.992.127-1.25.39-.256.258-.38.668-.38 1.246v9.442c0 .599.124 1.012.376 1.264s.662.373 1.254.373h4.696c.591 0 1.001-.12 1.25-.373.255-.249.38-.662.38-1.26zM23.146 8.067c.47.48.605 1.163.35 1.775a1.753 1.753 0 01-1.634 1.059h-.299v6.4c0 .928-.787 1.684-1.755 1.684h-8.94v1.57c0 1.008-.263 1.761-.81 2.302-.535.538-1.282.797-2.276.797H3.086c-.995 0-1.741-.262-2.28-.797C.267 22.316 0 21.563 0 20.555v-9.442c0-.985.262-1.731.8-2.28.545-.554 1.29-.823 2.282-.823H5.95L13.24.541c.663-.675 1.906-.679 2.565 0l7.341 7.526zm-8.383 4.06h-.074c-.581.004-1.17.384-1.17 1.218 0 .833.592 1.213 1.257 1.22.582-.014 1.167-.394 1.167-1.217 0-.824-.588-1.203-1.18-1.22zm-.077-5.804c-2.894.03-4.447 1.717-4.511 1.788a.489.489 0 00.716.662l.003-.003c.054-.06 1.348-1.442 3.829-1.47.016 0 2.346-.107 3.842 1.574a.48.48 0 00.682.04l.003-.003a.489.489 0 00.037-.69c-1.815-2.043-4.51-1.905-4.601-1.898zm.006 1.932c-2.188.024-3.468 1.429-3.522 1.486a.486.486 0 00.722.652c.01-.01 1.063-1.146 2.827-1.163.024-.013 1.778-.064 2.85 1.143a.485.485 0 00.686.037.489.489 0 00.037-.689c-1.374-1.546-3.516-1.466-3.6-1.466zm.014 1.977c-1.462.017-2.323.958-2.36.998a.489.489 0 00.723.656 2.405 2.405 0 011.664-.68c.01-.013 1.049-.026 1.664.663a.488.488 0 00.685.04.492.492 0 00.04-.689c-.934-1.042-2.38-.991-2.416-.988z" fill="#5CB615" fill-rule="nonzero"/></svg>
